static/logos/mixpanel-wordmark-color.svg

<svg width="100" height="34" viewBox="0 0 100 34" fill="none" xmlns="http://www.w3.org/2000/svg">
<g clip-path="url(#clip0_1_1977)">
<path d="M8.84972 28.9231C8.84972 31.3077 6.92668 33.2308 4.54207 33.2308C2.15745 33.2308 0.234375 31.3077 0.234375 28.9231C0.234375 26.5385 2.15745 24.6154 4.54207 24.6154C6.92668 24.6154 8.84972 26.5385 8.84972 28.9231Z" fill="black"/>
<path d="M23.232 29.0002C23.232 30.6925 21.8474 32.0771 20.155 32.0771C18.4627 32.0771 17.0781 30.6925 17.0781 29.0002C17.0781 27.3078 18.4627 25.9232 20.155 25.9232C21.8474 25.9232 23.232 27.3078 23.232 29.0002Z" fill="black"/>
<path d="M34.3864 28.9999C34.3864 29.7692 33.771 30.3845 33.0018 30.3845C32.2326 30.3845 31.6172 29.7692 31.6172 28.9999C31.6172 28.2307 32.2326 27.6153 33.0018 27.6153C33.771 27.6153 34.3864 28.2307 34.3864 28.9999Z" fill="black"/>
<path d="M19.3089 19.8462C18.5397 19.8462 18.0012 19.2308 18.0012 18.5385V12.8462C18.0012 10.9232 17.0781 9.38469 15.0012 9.38469C12.9243 9.38469 11.6166 11.0001 11.6166 12.8462V18.4616C11.6166 19.2308 11.0781 19.7693 10.3089 19.7693C9.53966 19.7693 9.0012 19.1539 9.0012 18.4616V12.7693C9.0012 10.8462 8.0012 9.30777 5.92428 9.30777C3.77043 9.30777 2.69351 10.9232 2.69351 12.7693V18.3847C2.69351 19.1539 2.15505 19.6924 1.38582 19.6924C0.616586 19.6924 0.078125 19.077 0.078125 18.3847V8.46162C0.078125 7.69238 0.616586 7.077 1.38582 7.077C2.3089 7.077 2.69351 7.69238 2.69351 8.46162V9.38469C3.46274 7.92315 5.0012 7.00008 6.69351 7.00008C8.69351 7.00008 10.232 8.00008 11.0012 9.53854C12.0781 7.84623 13.6935 7.00008 15.6935 7.00008C19.0781 7.00008 20.7704 9.38469 20.7704 12.6924V18.5385C20.6935 19.2308 20.155 19.8462 19.3089 19.8462Z" fill="black"/>
<path d="M24.3822 19.8463C23.613 19.8463 23.0745 19.2309 23.0745 18.5386V8.4617C23.0745 7.69247 23.613 7.15401 24.3822 7.15401C25.1514 7.15401 25.6899 7.7694 25.6899 8.4617V18.5386C25.6899 19.2309 25.1514 19.8463 24.3822 19.8463ZM24.3822 2.07709C25.2284 2.07709 25.9207 2.7694 25.9207 3.61555C25.9207 4.4617 25.2284 5.15401 24.3822 5.15401C23.5361 5.15401 22.8438 4.4617 22.8438 3.61555C22.8438 2.7694 23.5361 2.07709 24.3822 2.07709Z" fill="black"/>
<path d="M33.1502 11.6921L36.5349 7.5383C36.7656 7.30753 37.0733 7.15369 37.381 7.15369C38.1502 7.15369 38.6118 7.61523 38.6118 8.30753C38.6118 8.5383 38.5349 8.84599 38.3041 9.07676L34.6118 13.4614L38.381 17.9229C38.6118 18.1537 38.6887 18.3845 38.6887 18.6921C38.6887 19.3075 38.1502 19.846 37.5349 19.846C37.1502 19.846 36.8425 19.6921 36.6118 19.3845L33.2272 15.1537L29.8425 19.3845C29.6118 19.6921 29.3041 19.846 28.9195 19.846C28.3041 19.846 27.7656 19.3075 27.7656 18.6921C27.7656 18.3845 27.8425 18.1537 28.0733 17.9229L31.8425 13.4614L28.1502 9.07676C27.9195 8.84599 27.8425 8.5383 27.8425 8.30753C27.8425 7.61523 28.3041 7.15369 29.0733 7.15369C29.4579 7.15369 29.6887 7.30753 29.9195 7.5383L33.1502 11.6921Z" fill="black"/>
<path d="M47.0799 9.23092C44.7722 9.23092 43.3107 11.2309 43.3107 13.5386C43.3107 15.7694 44.8492 17.8463 47.0799 17.8463C49.3876 17.8463 50.8492 16.154 50.8492 13.5386C50.8492 10.9232 49.3876 9.23092 47.0799 9.23092ZM47.6184 20.0001C45.6953 20.0001 44.1569 19.0001 43.3107 17.5386V23.8463C43.3107 24.6155 42.7722 25.154 42.003 25.154C41.2338 25.154 40.6953 24.5386 40.6953 23.8463V8.46169C40.6953 7.69246 41.1569 7.154 41.9261 7.154C42.6953 7.154 43.2338 7.76938 43.2338 8.53861V9.53861C44.0799 8.07707 45.7722 7.07707 47.6184 7.07707C50.8492 7.07707 53.4645 9.76938 53.4645 13.5386C53.4645 17.3848 50.8492 20.0001 47.6184 20.0001Z" fill="black"/>
<path d="M61.0006 9.30784C58.7698 9.30784 57.1544 11.2309 57.1544 13.5386C57.1544 16.0001 58.4621 17.7694 61.0006 17.7694C63.3083 17.7694 64.8468 15.7694 64.8468 13.5386C64.7698 10.8463 63.2314 9.30784 61.0006 9.30784ZM67.4621 18.5386C67.4621 19.3078 66.9237 19.8463 66.1544 19.8463C65.3852 19.8463 64.8468 19.2309 64.8468 18.5386V17.9232C64.0775 19.0771 62.5391 20.0001 60.7698 20.0001C56.8468 20.0001 54.5391 17.0771 54.5391 13.5386C54.5391 10.0001 57.0775 7.07707 61.0775 7.07707C65.1544 7.07707 67.5391 9.76938 67.5391 13.5386V18.5386H67.4621Z" fill="black"/>
<path d="M75.3882 7.00008C78.7727 7.00008 81.3112 9.61546 81.3112 12.9232V18.5385C81.3112 19.3078 80.6958 19.8462 80.0035 19.8462C79.2343 19.8462 78.6958 19.2308 78.6958 18.5385V12.6155C78.6958 10.8462 77.3112 9.46162 75.4651 9.46162C73.6189 9.46162 72.2343 10.8462 72.2343 12.6155V18.5385C72.2343 19.3078 71.6189 19.8462 70.9266 19.8462C70.1574 19.8462 69.6189 19.2308 69.6189 18.5385V12.9232C69.542 9.61546 72.0036 7.00008 75.3882 7.00008Z" fill="black"/>
<path d="M89.2296 9.15392C87.3065 9.15392 85.9988 10.5385 85.6911 12.3078H92.6142C92.3834 10.5385 91.1526 9.15392 89.2296 9.15392ZM95.0757 13.5385C95.0757 14.0001 94.845 14.4616 94.0757 14.4616H85.6911C85.845 16.3847 87.1526 17.8462 89.4603 17.8462C90.9219 17.8462 91.768 17.3078 92.6911 16.4616C92.9219 16.2308 93.2296 16.0001 93.5373 16.0001C94.1526 16.0001 94.6142 16.4616 94.6142 17.077C94.6142 17.3847 94.4603 17.6155 94.3065 17.8462C93.2296 19.077 91.3065 19.9232 89.3065 19.9232C85.0757 19.9232 82.9219 17.0001 82.9219 13.4616C82.9219 9.76931 85.6142 7.00008 89.2296 7.00008C92.768 7.00008 95.0757 9.92315 95.0757 13.5385Z" fill="black"/>
<path d="M98.2296 19.846C97.4603 19.846 96.9219 19.2306 96.9219 18.5383V1.92292C96.9219 1.15369 97.4603 0.615234 98.2296 0.615234C98.9988 0.615234 99.5373 1.23062 99.5373 1.92292V18.5383C99.5373 19.2306 98.9988 19.846 98.2296 19.846Z" fill="black"/>
</g>
<defs>
<clipPath id="clip0_1_1977">
<rect width="100" height="33.8462" fill="white"/>
</clipPath>
</defs>
</svg>

<svg xmlns="http://www.w3.org/2000/svg" width="188.235" height="64" fill="none" viewBox="0 0 100 34"><g fill="#000" clip-path="url(#a)"><path d="M8.85 28.923a4.3 4.3 0 0 1-4.308 4.308 4.3 4.3 0 0 1-4.308-4.308 4.3 4.3 0 0 1 4.308-4.308 4.3 4.3 0 0 1 4.308 4.308ZM23.232 29a3.086 3.086 0 0 1-3.077 3.077A3.086 3.086 0 0 1 17.078 29a3.086 3.086 0 0 1 3.077-3.077A3.086 3.086 0 0 1 23.232 29ZM34.386 29c0 .77-.615 1.384-1.384 1.384-.77 0-1.385-.615-1.385-1.384 0-.77.616-1.385 1.385-1.385s1.384.616 1.384 1.385ZM19.309 19.846c-.77 0-1.308-.615-1.308-1.308v-5.692c0-1.923-.923-3.461-3-3.461S11.617 11 11.617 12.846v5.616c0 .769-.539 1.307-1.308 1.307-.77 0-1.308-.615-1.308-1.307v-5.693c0-1.923-1-3.461-3.077-3.461-2.154 0-3.23 1.615-3.23 3.461v5.616c0 .769-.539 1.307-1.308 1.307-.77 0-1.308-.615-1.308-1.307V8.462c0-.77.539-1.385 1.308-1.385.923 0 1.308.615 1.308 1.385v.923C3.463 7.923 5 7 6.694 7c2 0 3.538 1 4.307 2.539C12.078 7.846 13.694 7 15.694 7c3.384 0 5.076 2.385 5.076 5.692v5.846c-.076.693-.615 1.308-1.461 1.308ZM24.382 19.846c-.769 0-1.308-.615-1.308-1.307V8.462c0-.77.539-1.308 1.308-1.308.77 0 1.308.615 1.308 1.308v10.077c0 .692-.539 1.307-1.308 1.307Zm0-17.769c.846 0 1.539.692 1.539 1.539 0 .846-.693 1.538-1.539 1.538a1.543 1.543 0 0 1-1.538-1.538c0-.847.692-1.539 1.538-1.539ZM33.15 11.692l3.385-4.154c.23-.23.538-.384.846-.384.77 0 1.23.461 1.23 1.154 0 .23-.076.538-.307.769l-3.692 4.384 3.769 4.462c.23.23.308.462.308.77 0 .614-.539 1.153-1.154 1.153-.385 0-.692-.154-.923-.462l-3.385-4.23-3.384 4.23c-.231.308-.539.462-.924.462-.615 0-1.153-.538-1.153-1.154 0-.308.077-.538.307-.77l3.77-4.46-3.693-4.385a1.102 1.102 0 0 1-.307-.77c0-.692.461-1.153 1.23-1.153.385 0 .616.154.846.384l3.231 4.154ZM47.08 9.23c-2.308 0-3.77 2-3.77 4.309 0 2.23 1.54 4.307 3.77 4.307 2.308 0 3.77-1.692 3.77-4.307 0-2.616-1.462-4.308-3.77-4.308ZM47.618 20c-1.923 0-3.461-1-4.307-2.461v6.307c0 .77-.539 1.308-1.308 1.308-.77 0-1.308-.615-1.308-1.308V8.462c0-.77.462-1.308 1.231-1.308.77 0 1.308.615 1.308 1.385v1c.846-1.462 2.538-2.462 4.384-2.462 3.231 0 5.846 2.692 5.846 6.462 0 3.846-2.615 6.461-5.846 6.461ZM61 9.308c-2.23 0-3.846 1.923-3.846 4.23 0 2.462 1.308 4.231 3.847 4.231 2.307 0 3.846-2 3.846-4.23C64.77 10.846 63.23 9.308 61 9.308Zm6.462 9.23c0 .77-.538 1.308-1.308 1.308-.769 0-1.307-.615-1.307-1.307v-.616C64.077 19.077 62.539 20 60.77 20c-3.923 0-6.23-2.923-6.23-6.461 0-3.539 2.538-6.462 6.538-6.462 4.076 0 6.461 2.692 6.461 6.462v5h-.077ZM75.388 7c3.385 0 5.923 2.615 5.923 5.923v5.615c0 .77-.615 1.308-1.308 1.308-.769 0-1.307-.615-1.307-1.308v-5.922c0-1.77-1.385-3.154-3.23-3.154-1.847 0-3.232 1.384-3.232 3.154v5.922c0 .77-.615 1.308-1.307 1.308-.77 0-1.308-.615-1.308-1.308v-5.615C69.542 9.615 72.004 7 75.389 7ZM89.23 9.154c-1.924 0-3.231 1.385-3.539 3.154h6.923c-.23-1.77-1.461-3.154-3.384-3.154Zm5.846 4.385c0 .461-.231.923-1 .923H85.69c.154 1.923 1.462 3.384 3.77 3.384 1.46 0 2.307-.538 3.23-1.384.23-.231.539-.462.846-.462.616 0 1.077.462 1.077 1.077 0 .308-.154.538-.308.77-1.076 1.23-3 2.076-5 2.076-4.23 0-6.384-2.923-6.384-6.461C82.922 9.769 85.614 7 89.23 7c3.538 0 5.846 2.923 5.846 6.539ZM98.23 19.846c-.77 0-1.308-.615-1.308-1.308V1.923c0-.77.538-1.308 1.308-1.308.769 0 1.307.616 1.307 1.308v16.615c0 .693-.538 1.308-1.307 1.308Z"/></g><defs><clipPath id="a"><path fill="#fff" d="M0 0h100v33.846H0z"/></clipPath></defs></svg>
